X: 1
T: Cloonagroe, The
M: 4/4
L: 1/8
R: reel
K: Ador
e2dB GABd|e2ed eaag|e2dB DEGA|1 BcBA GEEg:|2 BcBA GED2||
e3f g2eg|a2ba gedg|edef g2eg|aged BGBd|
edef g2eg|a2ba gede|gabg agea|gedB Aaag||
